/* XPM */
static char * moonwell_luna_walk_v6[] = {
"64 16 13 1",
". c None",
"N c #070A11",
"D c #081928",
"T c #092637",
"M c #093449",
"C c #247288",
"H c #4AD0E6",
"S c #995832",
"P c #F8C591",
"B c #4D332B",
"A c #D46C18",
"G c #D79C4F",
"L c #FBF3CE",
".......N...............N...............N...............N........",
".......NH..............NH..............NH..............NH.......",
"....NNNNNN..........NNNNNN..........NNNNNN..........NNNNNN......",
"...NHTMMNSPN.......NHTMMNSPN.......NHTMMNSPN.......NHTMMNSPN....",
"...NTTMNSPPN.......NTTMNSPPN.......NTTMNSPPN.......NTTMNSPPN....",
"....NTNNSPN.........NTNNSPN.........NTNNSPN.........NTNNSPN.....",
"...NCMTNNBN........NCMTNNBN........NCMTNNBN........NCMTNNBN.....",
"..NCMTTNDNSN.......NMTTNDNSNN.....NCMTTNDNSN.......NMTTNDNSNN...",
"..NTMTNDNNPNNN....NTMTNDNNPNNN....NTMTNDNNPNNN....NTMTNDNNPNNN..",
".NTMTNDN...NBBN..NTMTNDN...NBBN.NNTMTNDN...NBBN...NTMTND...NBBN.",
".NMCMTND...NALN..NMCMTND...NALN..NMCMTND...NALN...NMCMTD...NALN.",
"..NTMDND...NAGN...NTMDND...NAGN...NTMDND...NAGN....NTMDD...NAGN.",
"...NTDNN...NBBN....NTDNN...NBBN....NTDNN...NBBN.....NTDN...NBBN.",
"....NDN.NNDN........NDN.NDN..........NDN.NDN........NDN.NDN.....",
"...NDDN..NDN........NDN.NDN.........NDN..NDDN......NDDN..NDDN...",
"................................................................"
};
